icons/bag-arrow-right.svg

<svg xmlns="http://www.w3.org/2000/svg" width="24" height="24" viewBox="0 0 24 24">
  <path d="M14,2 C15.5976809,2 16.9036609,3.24891996 16.9949073,4.82372721 L17,5 L17,6 L20,6 C21.1045695,6 22,6.8954305 22,8 L22,20 C22,21.1045695 21.1045695,22 20,22 L4,22 C2.8954305,22 2,21.1045695 2,20 L2,8 C2,6.8954305 2.8954305,6 4,6 L7,6 L7,5 C7,3.40231912 8.24891996,2.09633912 9.82372721,2.00509269 L10,2 L14,2 Z M15.7837744,13.3788907 L15.7803112,13.374551 L15.767,13.359 L15.775,13.37 L15.7071068,13.2928932 L12.7071068,10.2928932 L12.6128994,10.2097046 C12.2206082,9.90467972 11.6533772,9.93240926 11.2928932,10.2928932 C10.9023689,10.6834175 10.9023689,11.3165825 11.2928932,11.7071068 L11.2928932,11.7071068 L12.585,13 L9,13 L8.88337887,13.0067277 C8.38604019,13.0644928 8,13.4871642 8,14 C8,14.5522847 8.44771525,15 9,15 L9,15 L12.585,15 L11.2928932,16.2928932 L11.2097046,16.3871006 C10.9046797,16.7793918 10.9324093,17.3466228 11.2928932,17.7071068 C11.6834175,18.0976311 12.3165825,18.0976311 12.7071068,17.7071068 L12.7071068,17.7071068 L15.7071068,14.7071068 L15.7803112,14.625449 C15.7826279,14.6225624 15.7849289,14.6196628 15.7902954,14.6128994 C15.7948255,14.6070733 15.7992821,14.6012086 15.8036865,14.5951593 C15.8215099,14.5711307 15.8382813,14.546275 15.8540045,14.5207088 C15.8613931,14.5086131 15.8685012,14.4963944 15.8751242,14.484277 C15.8862061,14.4642939 15.8966234,14.4438914 15.9063266,14.4232215 L15.9063266,14.4232215 L15.928896,14.3710585 C15.9366843,14.3515792 15.9438775,14.3317977 15.9502619,14.3121425 C15.9552713,14.2968513 15.9599023,14.2814633 15.964279,14.2658396 C15.9701664,14.2444365 15.9753602,14.2227461 15.9797599,14.2007258 C15.9832978,14.1833753 15.9863719,14.165949 15.9889807,14.1489612 L15.9889807,14.1489612 L15.996,14.081 L15.997,14.059 L15.997,14.075 L15.9982669,14.0590314 L15.999,14.019 L16,14 L16,14 L15.9998198,13.980824 L15.9982669,13.9409686 C15.9976744,13.9308872 15.99693,13.9208131 15.996002,13.909968 L15.996002,13.909968 L15.9889822,13.8515331 C15.9863719,13.834051 15.9832978,13.8166247 15.9798348,13.7992059 C15.9753602,13.7772539 15.9701664,13.7555635 15.9641549,13.734007 C15.9599023,13.7185367 15.9552713,13.7031487 15.9504533,13.6882636 C15.9438775,13.6682023 15.9366843,13.6484208 15.9287745,13.628664 L15.9287745,13.628664 L15.9063462,13.5769009 C15.8966234,13.5561086 15.8862061,13.5357061 15.8753288,13.5159379 L15.8753288,13.5159379 L15.8539326,13.4793398 C15.8382813,13.453725 15.8215099,13.4288693 15.8036654,13.4046934 L15.8036654,13.4046934 L15.779,13.374 L15.7837744,13.3788907 Z M14,4 L10,4 C9.48716416,4 9.06449284,4.38604019 9.00672773,4.88337887 L9,5 L9,6 L15,6 L15,5 C15,4.48716416 14.6139598,4.06449284 14.1166211,4.00672773 L14,4 Z"/>
</svg>

<svg xmlns="http://www.w3.org/2000/svg" viewBox="0 0 24 24">
  <path d="M14 2a3 3 0 0 1 3 2.82V6h3a2 2 0 0 1 2 2v12a2 2 0 0 1-2 2H4a2 2 0 0 1-2-2V8c0-1.1.9-2 2-2h3V5a3 3 0 0 1 2.82-3H14zm1.78 11.38-.01-.02v.01l-.06-.08-3-3-.1-.08a1 1 0 0 0-1.32 1.5L12.6 13H8.88A1 1 0 0 0 9 15h3.59l-1.3 1.3-.08.09a1 1 0 0 0 1.5 1.32l3-3 .07-.08a3 3 0 0 0 .1-.15l.03-.06.02-.05a.95.95 0 0 0 .06-.22v-.09.01-.05L16 14v-.09l-.01-.06a1.1 1.1 0 0 0-.06-.22l-.02-.05a1.04 1.04 0 0 0-.03-.06l-.03-.04a1.03 1.03 0 0 0-.05-.08l-.02-.03zM14 4h-4a1 1 0 0 0-1 .88V6h6V5a1 1 0 0 0-.88-1H14z"/>
</svg>
